X:1
T:Train to Mallaig
C:T. S. Macdonald
M:C
L:1/8
K:D
%%text March
A2  | B2 E2 E3 A | B>AB<d B>AF>G | A2 F2 F3 E | D>EF>G A>FA<d |
      B2 E2 E3 A | B>AB<d B>AF>E | D>B,A,>C B,>G,A,<D | B,2 G,2 G,2 ||
A,2 | B,>A,B,<D B,2 A,2 | G,>A,B,<C D2 B,2 | C>B,C<D E2 C2 | D>CB,>A, G,2 A,2 |
      B,>A,B,<D C>B,C<E | D>CD<B g2 f>e | d>ed>B d>BA>F | G2 [B,G]2 [G,G]2 |]

